dealnox/img/sprite/icon-coinlist.svg

<svg width="18" height="19" viewBox="0 0 18 19" fill="none" xmlns="http://www.w3.org/2000/svg">
<g clip-path="url(#clip0_666_638)">
<path d="M4.51769 1.01786C5.2089 1.01786 5.88458 1.22182 6.4593 1.60395C7.03402 1.98608 7.48197 2.52922 7.74649 3.16469C8.011 3.80015 8.0802 4.49939 7.94535 5.174C7.8105 5.8486 7.47767 6.46826 6.98891 6.95463C6.50015 7.44099 5.87743 7.77221 5.1995 7.90639C4.52158 8.04058 3.81889 7.97171 3.18029 7.70849C2.5417 7.44527 1.99587 6.99953 1.61185 6.42763C1.22784 5.85573 1.02288 5.18336 1.02288 4.49554C1.02288 3.5732 1.39107 2.68864 2.04648 2.03645C2.70188 1.38425 3.59081 1.01786 4.51769 1.01786M4.51769 0C3.62418 0 2.75072 0.263659 2.00779 0.757635C1.26486 1.25161 0.68583 1.95372 0.343897 2.77517C0.00196431 3.59662 -0.0875102 4.50052 0.0868057 5.37257C0.261122 6.24462 0.691404 7.04565 1.32321 7.67436C1.95502 8.30307 2.75999 8.73123 3.63633 8.90469C4.51268 9.07815 5.42104 8.98913 6.24654 8.64887C7.07204 8.30861 7.7776 7.73241 8.27401 6.99312C8.77042 6.25383 9.03538 5.38467 9.03538 4.49554C9.03538 3.30325 8.5594 2.15979 7.71217 1.31671C6.86494 0.473635 5.71586 0 4.51769 0V0Z" fill="#968E8E"/>
<path d="M4.51769 11.0266C5.2089 11.0266 5.88458 11.2306 6.4593 11.6127C7.03402 11.9949 7.48197 12.538 7.74649 13.1735C8.011 13.8089 8.0802 14.5082 7.94535 15.1828C7.8105 15.8574 7.47767 16.4771 6.98891 16.9634C6.50015 17.4498 5.87743 17.781 5.1995 17.9152C4.52158 18.0494 3.81889 17.9805 3.18029 17.7173C2.5417 17.4541 1.99587 17.0083 1.61185 16.4364C1.22784 15.8645 1.02288 15.1921 1.02288 14.5043C1.02288 13.582 1.39107 12.6974 2.04648 12.0452C2.70188 11.393 3.59081 11.0266 4.51769 11.0266ZM4.51769 10.0088C3.62418 10.0088 2.75072 10.2724 2.00779 10.7664C1.26486 11.2604 0.68583 11.9625 0.343897 12.784C0.00196431 13.6054 -0.0875102 14.5093 0.0868057 15.3814C0.261122 16.2534 0.691404 17.0544 1.32321 17.6831C1.95502 18.3119 2.75999 18.74 3.63633 18.9135C4.51268 19.0869 5.42104 18.9979 6.24654 18.6577C7.07204 18.3174 7.7776 17.7412 8.27401 17.0019C8.77042 16.2626 9.03538 15.3935 9.03538 14.5043C9.03538 13.312 8.5594 12.1686 7.71217 11.3255C6.86494 10.4824 5.71586 10.0088 4.51769 10.0088Z" fill="#968E8E"/>
<path d="M17.4962 0.932617H11.7409C11.4706 0.932617 11.2516 1.1506 11.2516 1.41949V2.6511C11.2516 2.91999 11.4706 3.13797 11.7409 3.13797H17.4962C17.7664 3.13797 17.9855 2.91999 17.9855 2.6511V1.41949C17.9855 1.1506 17.7664 0.932617 17.4962 0.932617Z" fill="#968E8E"/>
<path d="M17.4817 5.59863H11.7554C11.4771 5.59863 11.2516 5.82307 11.2516 6.09993V7.3027C11.2516 7.57955 11.4771 7.80399 11.7554 7.80399H17.4817C17.76 7.80399 17.9855 7.57955 17.9855 7.3027V6.09993C17.9855 5.82307 17.76 5.59863 17.4817 5.59863Z" fill="#968E8E"/>
<path d="M17.5073 10.6846H11.7588C11.4867 10.6846 11.2661 10.9041 11.2661 11.1748V12.3997C11.2661 12.6704 11.4867 12.8899 11.7588 12.8899H17.5073C17.7794 12.8899 18 12.6704 18 12.3997V11.1748C18 10.9041 17.7794 10.6846 17.5073 10.6846Z" fill="#968E8E"/>
<path d="M17.4954 15.4346H11.7707C11.492 15.4346 11.2661 15.6594 11.2661 15.9367V17.1378C11.2661 17.4151 11.492 17.6399 11.7707 17.6399H17.4954C17.7741 17.6399 18 17.4151 18 17.1378V15.9367C18 15.6594 17.7741 15.4346 17.4954 15.4346Z" fill="#968E8E"/>
</g>
<defs>
<clipPath id="clip0_666_638">
<rect width="18" height="19" fill="white"/>
</clipPath>
</defs>
</svg>

<svg width="18" height="19" fill="none" xmlns="http://www.w3.org/2000/svg"><g clip-path="url(#clip0_666_638)" fill="#968E8E"><path d="M4.518 1.018c.69 0 1.367.204 1.941.586a3.481 3.481 0 0 1 1.287 1.56 3.462 3.462 0 0 1-.757 3.79 3.5 3.5 0 0 1-3.809.754 3.491 3.491 0 0 1-1.568-1.28 3.466 3.466 0 0 1 .434-4.392 3.504 3.504 0 0 1 2.472-1.018m0-1.018c-.894 0-1.767.264-2.51.758A4.5 4.5 0 0 0 .344 2.775a4.475 4.475 0 0 0 .98 4.9 4.538 4.538 0 0 0 4.923.975 4.513 4.513 0 0 0 2.027-1.657 4.48 4.48 0 0 0-.562-5.676A4.529 4.529 0 0 0 4.518 0zM4.518 11.027c.69 0 1.367.204 1.941.586a3.482 3.482 0 0 1 1.287 1.56 3.462 3.462 0 0 1-.757 3.79 3.5 3.5 0 0 1-3.809.754 3.491 3.491 0 0 1-1.568-1.28 3.466 3.466 0 0 1 .434-4.392 3.504 3.504 0 0 1 2.472-1.018zm0-1.018c-.894 0-1.767.263-2.51.757a4.5 4.5 0 0 0-1.664 2.018 4.475 4.475 0 0 0 .98 4.9 4.54 4.54 0 0 0 4.923.975A4.513 4.513 0 0 0 8.274 17a4.48 4.48 0 0 0-.562-5.676 4.529 4.529 0 0 0-3.194-1.317zM17.496.933h-5.755c-.27 0-.49.218-.49.486v1.232c0 .269.22.487.49.487h5.755c.27 0 .49-.218.49-.487V1.42a.488.488 0 0 0-.49-.486zM17.482 5.599h-5.727a.503.503 0 0 0-.503.5v1.204c0 .277.225.501.503.501h5.727a.503.503 0 0 0 .503-.501V6.1a.503.503 0 0 0-.503-.501zM17.507 10.685H11.76a.491.491 0 0 0-.493.49V12.4c0 .27.22.49.493.49h5.748c.272 0 .493-.22.493-.49v-1.225c0-.27-.22-.49-.493-.49zM17.495 15.435h-5.724a.503.503 0 0 0-.505.502v1.2c0 .278.226.503.505.503h5.724a.503.503 0 0 0 .505-.502v-1.201a.503.503 0 0 0-.505-.502z"/></g><defs><clipPath id="clip0_666_638"><path fill="#fff" d="M0 0h18v19H0z"/></clipPath></defs></svg>
